dist/assets/svg/mute.svg

<svg xmlns="http://www.w3.org/2000/svg" width="36" height="30" fill="none" viewBox="0 0 36 30"><path fill="#B3B3B3" d="M32.2053 15 35.6703 11.535C35.8901 11.3152 36 11.0474 36 10.7337 36 10.4199 35.8901 10.1522 35.6703 9.93234L34.0677 8.32972C33.8478 8.10991 33.5801 8 33.2663 8 32.9526 8 32.6848 8.10991 32.465 8.32972L29 11.7947 25.535 8.32972C25.3152 8.10991 25.0474 8 24.7337 8 24.4199 8 24.1522 8.10991 23.9323 8.32972L22.3297 9.93234C22.1099 10.1522 22 10.4199 22 10.7337 22 11.0474 22.1099 11.3152 22.3297 11.535L25.7947 15 22.3297 18.465C22.1099 18.6848 22 18.9526 22 19.2663 22 19.5801 22.1099 19.8478 22.3297 20.0677L23.9323 21.6703C24.1522 21.8901 24.4199 22 24.7337 22 25.0474 22 25.3152 21.8901 25.535 21.6703L29 18.2053 32.465 21.6703C32.6848 21.8901 32.9516 22 33.2663 22 33.5811 22 33.8478 21.8901 34.0677 21.6703L35.6703 20.0677C35.8901 19.8478 36 19.5801 36 19.2663 36 18.9526 35.8901 18.6848 35.6703 18.465L32.2053 15ZM18.3326 0C17.8816 0 17.4905.156374 17.1604.469123L8.48928 8.68426H1.66737C1.21531 8.68426.825273 8.84064.495164 9.15339.165055 9.46614 0 9.83665 0 10.2639V19.7361C0 20.1633.165055 20.5339.495164 20.8466.825273 21.1594 1.21636 21.3157 1.66737 21.3157H8.48928L17.1604 29.5309C17.4905 29.8436 17.8806 30 18.3326 30 18.7847 30 19.1747 29.8436 19.5048 29.5309 19.8349 29.2181 20 28.8486 20 28.4203V1.57968C20 1.15239 19.8349.781873 19.5059.469123 19.1768.156374 18.7857 0 18.3337 0H18.3326Z"/></svg>

<svg xmlns="http://www.w3.org/2000/svg" width="36" height="30" fill="none" viewBox="0 0 36 30"><path fill="#B3B3B3" d="m32.205 15 3.465-3.465q.33-.33.33-.801t-.33-.802L34.068 8.33q-.33-.33-.802-.33-.47 0-.801.33L29 11.795 25.535 8.33q-.33-.33-.801-.33t-.802.33L22.33 9.932q-.33.33-.33.802 0 .47.33.801L25.795 15l-3.465 3.465q-.33.33-.33.801t.33.802l1.602 1.602q.33.33.802.33.47 0 .801-.33L29 18.205l3.465 3.465q.33.33.801.33t.802-.33l1.602-1.602q.33-.33.33-.802 0-.47-.33-.801zM18.333 0q-.676 0-1.173.47L8.49 8.683H1.666q-.677 0-1.172.47Q0 9.622 0 10.263v9.472q0 .641.495 1.11t1.172.47H8.49l8.671 8.215q.494.47 1.173.469.678 0 1.172-.47.495-.467.495-1.11V1.58q0-.642-.494-1.11Q19.012 0 18.334 0z"/></svg>
